img/nerds-logo.svg

<svg width="160" height="66" viewBox="0 0 160 66" fill="none" xmlns="http://www.w3.org/2000/svg">
<path fill-rule="evenodd" clip-rule="evenodd" d="M48.031 23.7984C51.682 27.7724 59.647 24.1734 57.062 18.8764C55.336 15.3204 52.75 16.1454 50.904 17.0564C47.208 18.8354 46.509 22.1034 48.031 23.7984ZM42.105 21.0174C44.481 25.8834 37.168 29.1884 33.813 25.5384C32.415 23.9834 33.058 20.9784 36.449 19.3454C38.146 18.5094 40.522 17.7494 42.105 21.0174ZM157.936 49.3894C156.715 49.5486 155.442 49.6579 154.221 49.7628L154.179 49.7664V49.8224C151.764 67.1864 127.991 70.0534 127.4 56.4214C127.131 50.2544 138.993 48.4714 150.798 47.3334C151.007 41.9267 147.233 43.1389 142.648 44.6113C137.829 46.1591 132.115 47.9944 129.19 42.7324C124.171 33.7074 143.822 24.7944 145.918 26.6304C152.271 32.1921 149.4 33.2217 144.727 34.8978L144.539 34.9654C135.049 38.3754 138.748 39.0724 140.028 38.6914C147.597 36.4384 154.394 37.6514 154.34 47.0084C154.955 46.9574 155.557 46.9179 156.154 46.8788L156.154 46.8788C156.807 46.8361 157.452 46.7939 158.097 46.7374C160.403 46.5224 160.564 49.1724 157.936 49.3894ZM150.422 50.1454C141.298 51.1734 133.409 52.5814 134.269 55.5004C135.985 61.0734 147.846 62.3184 150.422 50.1454ZM117.79 33.2454C116.975 38.8954 116.996 44.8964 117.678 44.9334C118.012 44.9524 119.982 44.5874 120.617 43.4264C121.226 42.3088 121.794 40.7698 122.388 39.1564L122.388 39.1564L122.388 39.1563L122.388 39.1562L122.388 39.1561L122.388 39.156L122.388 39.1559C123.586 35.9062 124.895 32.3551 126.883 31.3394C129.725 29.8884 118.795 26.2944 117.79 33.2454ZM28.883 61.6814C20.964 67.0194 14.664 65.8404 16.671 50.8334C18.121 39.9294 15.723 39.3124 13.549 41.3914C10.704 44.0884 8.921 51.1144 8.865 57.8034C9.12323 59.4105 9.45828 61.0044 9.869 62.5794C10.203 64.2094 4.962 65.8944 1.895 63.5904C0.837 62.8054 0 54.8804 0 44.1464C0 35.3224 1.171 29.2514 2.23 28.9714C10.259 26.7804 11.542 30.3194 9.813 36.9524C9.12537 39.5497 8.65871 42.2005 8.418 44.8764C10.091 40.2124 12.489 36.3914 15.221 34.7034C22.637 30.0394 28.826 32.2304 27.655 41.5044C25.648 58.0844 25.481 60.3314 27.265 59.0394C29.496 57.4654 30.945 60.2774 28.883 61.6814ZM41.766 64.1574C47.176 64.7764 52.807 63.0894 54.982 59.6054C56.821 56.6824 55.316 55.6704 53.197 58.0304C48.737 63.1464 44.109 60.8414 42.158 55.6704L42.66 55.5024C52.082 51.7364 57.992 41.5084 54.257 35.7194C49.126 27.7384 33.069 34.8754 31.061 46.0604C29.221 56.4014 34.016 63.3144 41.766 64.1574ZM41.377 52.1874C47.232 48.0284 49.183 38.8674 47.566 36.2824C45.838 33.5854 42.492 37.7994 41.321 48.0284C41.21 49.4894 41.21 50.8934 41.377 52.1874ZM77.125 50.0664C79.188 49.3914 81.494 47.5144 83.091 45.0074C83.538 44.3044 83.914 43.6724 84.43 42.0274C84.3675 42.2265 84.3915 42.1358 84.4509 41.9107C84.5588 41.5017 84.7839 40.649 84.82 40.2864C84.82 40.2304 84.876 39.9474 84.932 39.8374C86.157 32.9804 81.921 29.1014 76.065 32.0244C72.776 33.6534 68.706 39.8374 66.253 46.5254C66.866 42.9274 67.925 39.4994 69.096 36.1264C71.103 30.1694 67.368 27.1344 60.956 28.8774C59.896 29.1584 57.945 36.9704 57.945 45.7944C57.945 56.5284 58.503 62.7104 59.562 63.4984C62.628 65.8584 68.092 64.1164 67.535 62.5424C67.3189 61.9445 67.1554 61.3438 66.9926 60.7458L66.977 60.6884C66.977 60.5194 66.977 60.3504 66.922 60.1824C65.861 53.2114 69.933 43.5474 73.278 40.9614C74.17 40.2304 75.396 40.7364 75.564 42.6474C72.832 43.9964 71.94 46.3574 71.94 47.3684C71.94 50.1224 74.727 50.7964 77.125 50.0664Z" fill="black"/>
<path fill-rule="evenodd" clip-rule="evenodd" d="M113.207 26.1764C112.726 28.6693 112.354 31.182 112.092 33.7074C111.033 43.7674 111.48 52.7034 112.705 56.6934C113.431 58.8304 116.162 61.6394 118.783 58.7164C121.626 55.5134 124.75 57.3674 120.957 61.1324C118.617 63.4374 114.268 65.0104 109.918 64.5604C106.795 64.1674 104.9 62.1454 103.784 59.0554C103.34 59.9534 102.837 60.7404 102.224 61.3574C100.105 63.5504 97.5389 64.7874 94.2499 64.4494C87.6129 63.7194 83.7119 56.5264 85.5509 46.2964C87.5029 35.5054 96.87 31.5714 102.279 34.4394C102.391 33.0904 102.502 31.7404 102.614 30.3354C102.641 30.1949 102.655 30.0544 102.669 29.9139C102.683 29.7734 102.696 29.6329 102.724 29.4924C101.079 29.8542 99.424 30.1729 97.7619 30.4484C73.7869 34.4384 82.0399 14.8794 87.8939 9.76543C94.53 4.03243 95.2539 7.91043 93.1909 9.20343C89.5109 11.5634 87.8939 25.1084 98.4319 25.1084C100.161 25.1084 101.778 24.9964 103.394 24.8274C106.685 6.50543 116.665 -2.37557 124.75 0.547433C133.726 3.80743 132.779 18.0824 113.207 26.1764ZM102.279 50.5694C102.055 47.0274 102.055 43.0374 102.112 38.9334C102.112 38.673 102.127 38.4129 102.141 38.1603C102.155 37.9222 102.168 37.6908 102.168 37.4724C98.8219 35.9544 95.5329 41.1254 94.6949 48.2644C93.7489 56.6374 97.483 61.0774 99.6029 59.0554C101.22 57.4244 102.056 52.2524 102.279 50.5694ZM126.365 7.40443C124.581 4.76243 118.058 7.96643 114.267 21.7364C123.802 17.1824 127.593 9.31443 126.365 7.40443Z" fill="black"/>
</svg>

<svg xmlns="http://www.w3.org/2000/svg" width="160" height="65" viewBox="0 0 160 65"><path d="M157.936 49.374c-1.235.161-2.523.271-3.757.377v.056c-2.415 17.364-26.188 20.231-26.779 6.599-.269-6.167 11.593-7.95 23.398-9.088.429-11.09-15.901 5.667-21.608-4.601-5.019-9.025 14.632-17.938 16.728-16.102 6.438 5.636 3.404 6.618-1.379 8.335-9.49 3.41-5.791 4.107-4.511 3.726 7.569-2.253 14.366-1.04 14.312 8.317 1.288-.107 2.522-.163 3.757-.271 2.306-.215 2.467 2.435-.161 2.652zm-7.514.756c-9.124 1.028-17.013 2.436-16.153 5.355 1.716 5.573 13.577 6.818 16.153-5.355zM117.678 44.918c-.682-.037-.703-6.038.112-11.688 1.005-6.951 11.935-3.357 9.093-1.906-2.975 1.52-4.429 8.718-6.266 12.087-.635 1.161-2.605 1.526-2.939 1.507zM42.105 21.002c2.376 4.866-4.937 8.171-8.292 4.521-1.398-1.555-.755-4.56 2.636-6.193 1.697-.836 4.073-1.596 5.656 1.672zM57.062 18.861c2.585 5.297-5.38 8.896-9.031 4.922-1.522-1.695-.823-4.963 2.873-6.742 1.846-.911 4.432-1.736 6.158 1.82zM28.883 61.666c-7.919 5.338-14.219 4.159-12.212-10.848 1.45-10.904-.948-11.521-3.122-9.442-2.845 2.697-4.628 9.723-4.684 16.412a50.98 50.98 0 0 0 1.004 4.776c.334 1.63-4.907 3.315-7.974 1.011C.837 62.79 0 54.865 0 44.131c0-8.824 1.171-14.895 2.23-15.175 8.029-2.191 9.312 1.348 7.583 7.981a47.637 47.637 0 0 0-1.395 7.924c1.673-4.664 4.071-8.485 6.803-10.173 7.416-4.664 13.605-2.473 12.434 6.801-2.007 16.58-2.174 18.827-.39 17.535 2.231-1.574 3.68 1.238 1.618 2.642zM54.982 59.59c-2.175 3.484-7.806 5.171-13.216 4.552-7.75-.843-12.545-7.756-10.705-18.097 2.008-11.185 18.065-18.322 23.196-10.341 3.735 5.789-2.175 16.017-11.597 19.783l-.502.168c1.951 5.171 6.579 7.476 11.039 2.36 2.119-2.36 3.624-1.348 1.785 1.575zm-13.605-7.418c5.855-4.159 7.806-13.32 6.189-15.905-1.728-2.697-5.074 1.517-6.245 11.746-.111 1.461-.111 2.865.056 4.159zM83.091 44.992c-1.597 2.507-3.903 4.384-5.966 5.059-2.398.73-5.185.056-5.185-2.698 0-1.011.892-3.372 3.624-4.721-.168-1.911-1.394-2.417-2.286-1.686-3.345 2.586-7.417 12.25-6.356 19.221.055.168.055.337.055.506.168.617.335 1.237.558 1.854.557 1.574-4.907 3.316-7.973.956-1.059-.788-1.617-6.97-1.617-17.704 0-8.824 1.951-16.636 3.011-16.917 6.412-1.743 10.147 1.292 8.14 7.249-1.171 3.373-2.23 6.801-2.843 10.399 2.453-6.688 6.523-12.872 9.812-14.501 5.856-2.923 10.092.956 8.867 7.813-.056.11-.112.393-.112.449-.056.562-.566 2.302-.39 1.741-.516 1.645-.892 2.277-1.339 2.98z"/><path d="M113.207 26.161a86.988 86.988 0 0 0-1.115 7.531c-1.059 10.06-.612 18.996.613 22.986.726 2.137 3.457 4.946 6.078 2.023 2.843-3.203 5.967-1.349 2.174 2.416-2.34 2.305-6.689 3.878-11.039 3.428-3.123-.393-5.018-2.415-6.134-5.505-.444.898-.947 1.685-1.56 2.302-2.119 2.193-4.685 3.43-7.974 3.092-6.637-.73-10.538-7.923-8.699-18.153 1.952-10.791 11.319-14.725 16.728-11.857.112-1.349.223-2.699.335-4.104.055-.281.055-.562.11-.843a96.962 96.962 0 0 1-4.962.956C73.787 34.423 82.04 14.864 87.894 9.75c6.636-5.733 7.36-1.855 5.297-.562-3.68 2.36-5.297 15.905 5.241 15.905 1.729 0 3.346-.112 4.962-.281C106.685 6.49 116.665-2.391 124.75.532c8.976 3.26 8.029 17.535-11.543 25.629zm-10.928 24.393c-.224-3.542-.224-7.532-.167-11.636 0-.506.056-1.011.056-1.461-3.346-1.518-6.635 3.653-7.473 10.792-.946 8.373 2.788 12.813 4.908 10.791 1.617-1.631 2.453-6.803 2.676-8.486zm24.086-43.165c-1.784-2.642-8.307.562-12.098 14.332 9.535-4.554 13.326-12.422 12.098-14.332z"/></svg>
